assets/dude/Design–Johnny.svg

<svg width="499" height="100" viewBox="0 0 499 100" fill="none" xmlns="http://www.w3.org/2000/svg">
<path d="M41.7001 0.72002C32.7401 0.72002 25.1801 6.60002 22.5201 14.58C21.8201 16.54 21.8201 16.96 21.5401 16.96C21.2601 16.96 21.2601 16.54 20.5601 14.58C17.9001 6.60002 10.3401 0.72002 1.38012 0.72002C0.680118 0.72002 0.120117 1.28002 0.120117 1.98002V34.74C0.120117 35.44 0.680118 36 1.38012 36H15.2401C15.9401 36 16.5001 36.56 16.5001 37.26V62.46C16.5001 63.16 15.9401 63.72 15.2401 63.72H1.38012C0.680118 63.72 0.120117 64.28 0.120117 64.98V97.74C0.120117 98.44 0.680118 99 1.38012 99C10.3401 99 17.9001 93.26 20.5601 85.14C21.2601 83.18 21.2601 82.76 21.5401 82.76C21.8201 82.76 21.8201 83.18 22.5201 85.14C25.1801 93.26 32.7401 99 41.7001 99H53.7401C70.4001 99 83.9801 85.42 83.9801 68.76V30.96C83.9801 14.3 70.4001 0.72002 53.7401 0.72002H41.7001ZM73.9001 54.9C73.9001 59.8 69.9801 63.72 65.0801 63.72H27.8401C27.1401 63.72 26.5801 63.16 26.5801 62.46V37.26C26.5801 36.56 27.1401 36 27.8401 36H65.0801C69.9801 36 73.9001 39.92 73.9001 44.82V54.9Z" fill="#FF1C31"/>
<path d="M173.212 0.72002C164.252 0.72002 156.692 6.60002 154.032 14.58C153.332 16.54 153.332 16.96 153.052 16.96C152.772 16.96 152.772 16.54 152.072 14.58C149.412 6.60002 141.852 0.72002 132.892 0.72002C123.932 0.72002 116.372 6.60002 113.712 14.58C113.012 16.54 113.012 16.96 112.732 16.96C112.452 16.96 112.452 16.54 111.752 14.58C109.092 6.60002 101.532 0.72002 92.5715 0.72002C91.8715 0.72002 91.3115 1.28002 91.3115 1.98002V34.74C91.3115 35.44 91.8715 36 92.5715 36H106.432C107.132 36 107.692 36.56 107.692 37.26V62.46C107.692 63.16 107.132 63.72 106.432 63.72H92.5715C91.8715 63.72 91.3115 64.28 91.3115 64.98V97.74C91.3115 98.44 91.8715 99 92.5715 99C101.532 99 109.092 93.26 111.752 85.14C112.452 83.18 112.452 82.76 112.732 82.76C113.012 82.76 113.012 83.18 113.712 85.14C116.372 93.26 123.932 99 132.892 99C141.852 99 149.412 93.26 152.072 85.14C152.772 83.18 152.772 82.76 153.052 82.76C153.332 82.76 153.332 83.18 154.032 85.14C156.692 93.26 164.252 99 173.212 99C173.912 99 174.472 98.44 174.472 97.74V57.84C174.472 57.14 173.912 56.58 173.212 56.58H165.932C165.232 56.58 164.672 57.14 164.672 57.84C164.672 61.34 161.872 63.72 158.372 63.72H119.032C118.332 63.72 117.772 63.16 117.772 62.46V54.9C117.772 54.2 118.332 53.64 119.032 53.64H130.792C131.492 53.64 132.052 54.2 132.052 54.9V56.16C132.052 56.86 132.612 57.42 133.312 57.42H152.212C152.912 57.42 153.472 56.86 153.472 56.16V43.56C153.472 42.86 152.912 42.3 152.212 42.3H133.312C132.612 42.3 132.052 42.86 132.052 43.56V44.82C132.052 45.52 131.492 46.08 130.792 46.08H119.032C118.332 46.08 117.772 45.52 117.772 44.82V37.26C117.772 36.56 118.332 36 119.032 36H158.372C161.872 36 164.672 38.38 164.672 41.88C164.672 42.58 165.232 43.14 165.932 43.14H173.212C173.912 43.14 174.472 42.58 174.472 41.88V1.98002C174.472 1.28002 173.912 0.72002 173.212 0.72002Z" fill="#FF1C31"/>
<path d="M202.253 39.5C202.253 37.4 204.353 35.72 206.453 35.72H239.213C242.713 35.72 245.513 38.1 245.513 41.6C245.513 42.3 246.073 42.86 246.773 42.86H254.053C254.753 42.86 255.313 42.3 255.313 41.6V1.98002C255.313 1.28002 254.753 0.72002 254.053 0.72002C245.093 0.72002 237.533 6.60002 234.873 14.58C234.173 16.54 234.173 16.96 233.893 16.96C233.613 16.96 233.613 16.54 232.913 14.58C230.253 6.60002 222.693 0.0200195 213.733 0.0200195H211.493C196.093 0.0200195 183.633 12.34 183.353 27.74V32.22C183.353 66.24 241.033 45.1 241.033 60.22C241.033 62.32 239.353 64 237.253 64H198.193C194.693 64 191.893 61.62 191.893 58.12C191.893 57.42 191.333 56.86 190.633 56.86H183.353C182.653 56.86 182.093 57.42 182.093 58.12V97.74C182.093 98.44 182.653 99 183.353 99C192.313 99 199.873 93.26 202.533 85.14C203.233 83.18 203.233 82.76 203.513 82.76C203.793 82.76 203.793 83.18 204.493 85.14C207.153 93.26 214.713 99.7 223.673 99.7H231.793C247.193 99.7 259.653 87.38 259.933 71.98V67.5C259.933 33.48 202.253 54.62 202.253 39.5Z" fill="#FF1C31"/>
<path d="M294.168 36H308.028C308.728 36 309.288 35.44 309.288 34.74V1.98002C309.288 1.28002 308.728 0.72002 308.028 0.72002C299.068 0.72002 291.508 6.60002 288.848 14.58C288.148 16.54 288.148 16.96 287.868 16.96C287.588 16.96 287.588 16.54 286.888 14.58C284.228 6.60002 276.668 0.72002 267.708 0.72002C267.008 0.72002 266.448 1.28002 266.448 1.98002V34.74C266.448 35.44 267.008 36 267.708 36H281.568C282.268 36 282.828 36.56 282.828 37.26V62.46C282.828 63.16 282.268 63.72 281.568 63.72H267.708C267.008 63.72 266.448 64.28 266.448 64.98V97.74C266.448 98.44 267.008 99 267.708 99C276.668 99 284.228 93.26 286.888 85.14C287.588 83.18 287.588 82.76 287.868 82.76C288.148 82.76 288.148 83.18 288.848 85.14C291.508 93.26 299.068 99 308.028 99C308.728 99 309.288 98.44 309.288 97.74V64.98C309.288 64.28 308.728 63.72 308.028 63.72H294.168C293.468 63.72 292.908 63.16 292.908 62.46V37.26C292.908 36.56 293.468 36 294.168 36Z" fill="#FF1C31"/>
<path d="M326.704 44.54C326.704 39.64 330.624 35.72 335.524 35.72H393.484C394.184 35.72 394.744 35.16 394.744 34.46V1.98002C394.744 1.28002 394.184 0.72002 393.484 0.72002C384.524 0.72002 376.964 6.60002 374.304 14.58C373.604 16.54 373.604 16.96 373.324 16.96C373.044 16.96 373.044 16.54 372.344 14.58C369.684 6.60002 362.124 0.0200195 353.164 0.0200195H346.864C330.204 0.0200195 316.624 13.6 316.624 30.26V69.6C316.624 86.26 330.204 99.7 346.864 99.7H353.164C362.124 99.7 369.684 93.26 372.344 85.14C373.044 83.18 373.044 82.76 373.324 82.76C373.604 82.76 373.604 83.18 374.304 85.14C376.964 93.26 384.524 99 393.484 99C394.184 99 394.744 98.44 394.744 97.74V65.26C394.744 64.56 394.184 64 393.484 64H379.624C378.924 64 378.364 63.44 378.364 62.74V54.9C378.364 54.2 378.924 53.64 379.624 53.64H393.484C394.184 53.64 394.744 53.08 394.744 52.38V47.34C394.744 46.64 394.184 46.08 393.484 46.08H353.164C352.464 46.08 351.904 46.64 351.904 47.34V52.38C351.904 53.08 352.464 53.64 353.164 53.64H367.024C367.724 53.64 368.284 54.2 368.284 54.9V62.74C368.284 63.44 367.724 64 367.024 64H335.524C330.624 64 326.704 60.08 326.704 55.18V44.54Z" fill="#FF1C31"/>
<path d="M497.12 0.72002C488.16 0.72002 480.6 6.60002 477.94 14.58C477.38 16.54 477.24 16.96 476.96 16.96C476.68 16.96 476.54 16.54 475.98 14.58C473.32 6.60002 465.76 0.72002 456.8 0.72002C456.1 0.72002 455.54 1.28002 455.54 1.98002V34.74C455.54 35.44 456.1 36 456.8 36H470.66C471.36 36 471.92 36.56 471.92 37.26V62.46C471.92 63.16 471.36 63.72 470.66 63.72H462.82C461.7 63.72 461.14 63.16 461.14 63.16L443.22 37.96C443.22 37.96 442.66 37.12 442.66 36.56C442.66 36.28 442.8 36 443.5 36H444.2C444.9 36 445.46 35.44 445.46 34.74V1.98002C445.46 1.28002 444.9 0.72002 444.2 0.72002C435.24 0.72002 427.68 6.60002 425.02 14.58C424.46 16.54 424.32 16.96 424.04 16.96C423.76 16.96 423.62 16.54 423.06 14.58C420.4 6.60002 412.84 0.72002 403.88 0.72002C403.18 0.72002 402.62 1.28002 402.62 1.98002V34.74C402.62 35.44 403.18 36 403.88 36H417.74C418.44 36 419 36.56 419 37.26V62.46C419 63.16 418.44 63.72 417.74 63.72H403.88C403.18 63.72 402.62 64.28 402.62 64.98V97.74C402.62 98.44 403.18 99 403.88 99C412.84 99 420.4 93.26 423.06 85.14C423.62 83.18 423.62 82.76 424.04 82.76C424.32 82.76 424.46 83.18 425.02 85.14C427.68 93.26 435.24 99 444.2 99C444.9 99 445.46 98.44 445.46 97.74V64.98C445.46 64.28 444.9 63.72 444.2 63.72H430.34C429.64 63.72 429.08 63.16 429.08 62.46V38.1C429.08 37.54 429.36 37.26 429.64 37.26C430.34 37.26 431.04 38.38 431.04 38.38L472.9 96.9C473.74 98.16 475.28 99 476.96 99C479.76 99 482 96.76 482 93.96V37.26C482 36.56 482.56 36 483.26 36H497.12C497.82 36 498.38 35.44 498.38 34.74V1.98002C498.38 1.28002 497.82 0.72002 497.12 0.72002Z" fill="#FF1C31"/>
</svg>

<svg xmlns="http://www.w3.org/2000/svg" fill="none" viewBox="0 0 499 100"><path fill="#FF1C31" d="M41.7.72c-8.96 0-16.52 5.88-19.18 13.86-.7 1.96-.7 2.38-.98 2.38s-.28-.42-.98-2.38C17.9 6.6 10.34.72 1.38.72.68.72.12 1.28.12 1.98v32.76c0 .7.56 1.26 1.26 1.26h13.86c.7 0 1.26.56 1.26 1.26v25.2c0 .7-.56 1.26-1.26 1.26H1.38c-.7 0-1.26.56-1.26 1.26v32.76c0 .7.56 1.26 1.26 1.26 8.96 0 16.52-5.74 19.18-13.86.7-1.96.7-2.38.98-2.38s.28.42.98 2.38A20.097 20.097 0 0 0 41.7 99h12.04c16.66 0 30.24-13.58 30.24-30.24v-37.8C83.98 14.3 70.4.72 53.74.72H41.7zM73.9 54.9c0 4.9-3.92 8.82-8.82 8.82H27.84c-.7 0-1.26-.56-1.26-1.26v-25.2c0-.7.56-1.26 1.26-1.26h37.24c4.9 0 8.82 3.92 8.82 8.82V54.9zM173.212.72c-8.96 0-16.52 5.88-19.18 13.86-.7 1.96-.7 2.38-.98 2.38s-.28-.42-.98-2.38C149.412 6.6 141.852.72 132.892.72c-8.96 0-16.52 5.88-19.18 13.86-.7 1.96-.7 2.38-.98 2.38s-.28-.42-.98-2.38C109.092 6.6 101.532.72 92.572.72c-.7 0-1.26.56-1.26 1.26v32.76c0 .7.56 1.26 1.26 1.26h13.86c.7 0 1.26.56 1.26 1.26v25.2c0 .7-.56 1.26-1.26 1.26h-13.86c-.7 0-1.26.56-1.26 1.26v32.76c0 .7.56 1.26 1.26 1.26 8.96 0 16.52-5.74 19.18-13.86.7-1.96.7-2.38.98-2.38s.28.42.98 2.38A20.097 20.097 0 0 0 132.892 99c8.96 0 16.52-5.74 19.18-13.86.7-1.96.7-2.38.98-2.38s.28.42.98 2.38A20.097 20.097 0 0 0 173.212 99c.7 0 1.26-.56 1.26-1.26v-39.9c0-.7-.56-1.26-1.26-1.26h-7.28c-.7 0-1.26.56-1.26 1.26 0 3.5-2.8 5.88-6.3 5.88h-39.34c-.7 0-1.26-.56-1.26-1.26V54.9c0-.7.56-1.26 1.26-1.26h11.76c.7 0 1.26.56 1.26 1.26v1.26c0 .7.56 1.26 1.26 1.26h18.9c.7 0 1.26-.56 1.26-1.26v-12.6c0-.7-.56-1.26-1.26-1.26h-18.9c-.7 0-1.26.56-1.26 1.26v1.26c0 .7-.56 1.26-1.26 1.26h-11.76c-.7 0-1.26-.56-1.26-1.26v-7.56c0-.7.56-1.26 1.26-1.26h39.34c3.5 0 6.3 2.38 6.3 5.88 0 .7.56 1.26 1.26 1.26h7.28c.7 0 1.26-.56 1.26-1.26V1.98c0-.7-.56-1.26-1.26-1.26zM202.253 39.5c0-2.1 2.1-3.78 4.2-3.78h32.76c3.5 0 6.3 2.38 6.3 5.88 0 .7.56 1.26 1.26 1.26h7.28c.7 0 1.26-.56 1.26-1.26V1.98c0-.7-.56-1.26-1.26-1.26-8.96 0-16.52 5.88-19.18 13.86-.7 1.96-.7 2.38-.98 2.38s-.28-.42-.98-2.38C230.253 6.6 222.693.02 213.733.02h-2.24c-15.4 0-27.86 12.32-28.14 27.72v4.48c0 34.02 57.68 12.88 57.68 28 0 2.1-1.68 3.78-3.78 3.78h-39.06c-3.5 0-6.3-2.38-6.3-5.88 0-.7-.56-1.26-1.26-1.26h-7.28c-.7 0-1.26.56-1.26 1.26v39.62c0 .7.56 1.26 1.26 1.26 8.96 0 16.52-5.74 19.18-13.86.7-1.96.7-2.38.98-2.38s.28.42.98 2.38c2.66 8.12 10.22 14.56 19.18 14.56h8.12c15.4 0 27.86-12.32 28.14-27.72V67.5c0-34.02-57.68-12.88-57.68-28zM294.168 36h13.86c.7 0 1.26-.56 1.26-1.26V1.98c0-.7-.56-1.26-1.26-1.26-8.96 0-16.52 5.88-19.18 13.86-.7 1.96-.7 2.38-.98 2.38s-.28-.42-.98-2.38C284.228 6.6 276.668.72 267.708.72c-.7 0-1.26.56-1.26 1.26v32.76c0 .7.56 1.26 1.26 1.26h13.86c.7 0 1.26.56 1.26 1.26v25.2c0 .7-.56 1.26-1.26 1.26h-13.86c-.7 0-1.26.56-1.26 1.26v32.76c0 .7.56 1.26 1.26 1.26 8.96 0 16.52-5.74 19.18-13.86.7-1.96.7-2.38.98-2.38s.28.42.98 2.38A20.097 20.097 0 0 0 308.028 99c.7 0 1.26-.56 1.26-1.26V64.98c0-.7-.56-1.26-1.26-1.26h-13.86c-.7 0-1.26-.56-1.26-1.26v-25.2c0-.7.56-1.26 1.26-1.26zM326.704 44.54c0-4.9 3.92-8.82 8.82-8.82h57.96c.7 0 1.26-.56 1.26-1.26V1.98c0-.7-.56-1.26-1.26-1.26-8.96 0-16.52 5.88-19.18 13.86-.7 1.96-.7 2.38-.98 2.38s-.28-.42-.98-2.38C369.684 6.6 362.124.02 353.164.02h-6.3c-16.66 0-30.24 13.58-30.24 30.24V69.6c0 16.66 13.58 30.1 30.24 30.1h6.3c8.96 0 16.52-6.44 19.18-14.56.7-1.96.7-2.38.98-2.38s.28.42.98 2.38A20.097 20.097 0 0 0 393.484 99c.7 0 1.26-.56 1.26-1.26V65.26c0-.7-.56-1.26-1.26-1.26h-13.86c-.7 0-1.26-.56-1.26-1.26V54.9c0-.7.56-1.26 1.26-1.26h13.86c.7 0 1.26-.56 1.26-1.26v-5.04c0-.7-.56-1.26-1.26-1.26h-40.32c-.7 0-1.26.56-1.26 1.26v5.04c0 .7.56 1.26 1.26 1.26h13.86c.7 0 1.26.56 1.26 1.26v7.84c0 .7-.56 1.26-1.26 1.26h-31.5c-4.9 0-8.82-3.92-8.82-8.82V44.54zM497.12.72c-8.96 0-16.52 5.88-19.18 13.86-.56 1.96-.7 2.38-.98 2.38s-.42-.42-.98-2.38C473.32 6.6 465.76.72 456.8.72c-.7 0-1.26.56-1.26 1.26v32.76c0 .7.56 1.26 1.26 1.26h13.86c.7 0 1.26.56 1.26 1.26v25.2c0 .7-.56 1.26-1.26 1.26h-7.84c-1.12 0-1.68-.56-1.68-.56l-17.92-25.2s-.56-.84-.56-1.4c0-.28.14-.56.84-.56h.7c.7 0 1.26-.56 1.26-1.26V1.98c0-.7-.56-1.26-1.26-1.26-8.96 0-16.52 5.88-19.18 13.86-.56 1.96-.7 2.38-.98 2.38s-.42-.42-.98-2.38C420.4 6.6 412.84.72 403.88.72c-.7 0-1.26.56-1.26 1.26v32.76c0 .7.56 1.26 1.26 1.26h13.86c.7 0 1.26.56 1.26 1.26v25.2c0 .7-.56 1.26-1.26 1.26h-13.86c-.7 0-1.26.56-1.26 1.26v32.76c0 .7.56 1.26 1.26 1.26 8.96 0 16.52-5.74 19.18-13.86.56-1.96.56-2.38.98-2.38.28 0 .42.42.98 2.38A20.097 20.097 0 0 0 444.2 99c.7 0 1.26-.56 1.26-1.26V64.98c0-.7-.56-1.26-1.26-1.26h-13.86c-.7 0-1.26-.56-1.26-1.26V38.1c0-.56.28-.84.56-.84.7 0 1.4 1.12 1.4 1.12L472.9 96.9c.84 1.26 2.38 2.1 4.06 2.1 2.8 0 5.04-2.24 5.04-5.04v-56.7c0-.7.56-1.26 1.26-1.26h13.86c.7 0 1.26-.56 1.26-1.26V1.98c0-.7-.56-1.26-1.26-1.26z"/></svg>
